usr/share/icons/biglinux-icons-material/16/actions/im-qq.svg

<svg xmlns="http://www.w3.org/2000/svg" viewBox="0 0 16 16">
  <defs id="defs3051">
    <style type="text/css" id="current-color-scheme">
      .ColorScheme-Text {
        color:#dedede;
      }
      </style>
  </defs>
 <path style="fill:currentColor;fill-opacity:1;stroke:none" 
     d="M 8 2 A 5.9999976 5.9999852 0 0 0 2 8 A 5.9999976 5.9999852 0 0 0 8 14 A 5.9999976 5.9999852 0 0 0 11.875 12.582031 L 13.292969 14 C 13.274995 14.002873 14 13.292969 14 13.292969 L 12.576172 11.869141 A 5.9999976 5.9999852 0 0 0 14 8 A 5.9999976 5.9999852 0 0 0 8 2 z M 8 3 A 5 5 0 0 1 13 8 A 5 5 0 0 1 11.869141 11.162109 L 10.707031 10 C 10.707031 10 9.9966748 10.69967 10 10.707031 L 11.162109 11.869141 A 5 5 0 0 1 8 13 A 5 5 0 0 1 3 8 A 5 5 0 0 1 8 3 z "
     class="ColorScheme-Text"
     />
</svg>

<svg xmlns="http://www.w3.org/2000/svg" viewBox="0 0 16 16"><path d="M8 2a6 6 0 0 0-6 6 6 6 0 0 0 6 6 6 6 0 0 0 3.875-1.418L13.293 14c-.018.003.707-.707.707-.707l-1.424-1.424A6 6 0 0 0 14 8a6 6 0 0 0-6-6zm0 1a5 5 0 0 1 5 5 5 5 0 0 1-1.13 3.162L10.706 10s-.71.7-.707.707l1.162 1.162A5 5 0 0 1 8 13a5 5 0 0 1-5-5 5 5 0 0 1 5-5z" style="fill:currentColor;fill-opacity:1;stroke:none;color:#dedede"/></svg>
